static/images/logo-dark.svg

<svg viewBox="0 0 180 32" xmlns="http://www.w3.org/2000/svg">
<path d="m35.743 16.569c1.6519 2.8611 0.6716 6.5196-2.1895 8.1715l-7.1733 4.1414c-2.8611 1.6519-6.5196 0.6716-8.1714-2.1895-1.6519-2.8611-0.6716-6.5196 2.1895-8.1714l7.1733-4.1415c2.8611-1.6519 6.5196-0.6716 8.1714 2.1895z" clip-rule="evenodd" fill="#ADF485" fill-rule="evenodd"/>
<path d="m27.903 2.992c1.6519 2.8611 0.6716 6.5196-2.1895 8.1714l-16.74 9.6648c-2.8611 1.6519-6.5196 0.6716-8.1714-2.1895-1.6519-2.8611-0.67157-6.5196 2.1895-8.1715l16.74-9.6648c2.8611-1.6519 6.5195-0.67157 8.1714 2.1895z" clip-rule="evenodd" fill="#ADF485" fill-rule="evenodd"/>
<path d="m56.517 25.656h-3.6001v-18.397h-6.8034v-3.2316h17.264v3.2316h-6.8601v18.397z" fill="#fff"/>
<path d="m68.487 25.968c-1.5497 0-2.9293-0.3497-4.1388-1.0489-1.2094-0.6992-2.1544-1.6725-2.8347-2.9198-0.6614-1.2662-0.9922-2.7119-0.9922-4.3371 0-1.5686 0.3308-2.9671 0.9922-4.1955 0.6803-1.2472 1.6253-2.2111 2.8347-2.8914 1.2095-0.69923 2.5891-1.0488 4.1388-1.0488 1.5496 0 2.9292 0.34961 4.1387 1.0488 1.2095 0.6803 2.1544 1.6442 2.8347 2.8914 0.6804 1.2284 1.0205 2.6269 1.0205 4.1955 0 1.6063-0.3401 3.0426-1.0205 4.3088-0.6614 1.2473-1.5969 2.23-2.8064 2.9481-1.2095 0.6992-2.5985 1.0489-4.167 1.0489zm0-2.9198c0.8693 0 1.6536-0.2268 2.3528-0.6804 0.6992-0.4724 1.2378-1.115 1.6158-1.9276 0.3969-0.8126 0.5953-1.7386 0.5953-2.778 0-0.9827-0.1984-1.871-0.5953-2.6647-0.378-0.8126-0.9166-1.4457-1.6158-1.8993-0.6992-0.4535-1.4835-0.6803-2.3528-0.6803-0.8694 0-1.6536 0.2268-2.3529 0.6803-0.6992 0.4347-1.2473 1.0583-1.6441 1.871-0.378 0.7937-0.567 1.6914-0.567 2.693 0 1.0583 0.1985 1.9937 0.5953 2.8064 0.3969 0.8126 0.9355 1.4457 1.6158 1.8992 0.6993 0.4536 1.4835 0.6804 2.3529 0.6804z" fill="#fff"/>
<path d="m87.323 9.4979c1.3796 0 2.5891 0.34961 3.6285 1.0489 1.0583 0.6803 1.8804 1.6441 2.4662 2.8914 0.5859 1.2473 0.8788 2.6741 0.8788 4.2805 0 1.6063-0.2929 3.0331-0.8788 4.2804-0.5858 1.2473-1.4079 2.2206-2.4662 2.9198-1.0394 0.6803-2.2489 1.0205-3.6285 1.0205-1.0016 0-1.8709-0.1795-2.6079-0.5386-0.7371-0.3591-1.4458-0.9922-2.1261-1.8993v7.9373h-3.345v-21.629h3.345v2.1544c0.6803-0.9071 1.3796-1.5402 2.0977-1.8992 0.737-0.37801 1.6158-0.56699 2.6363-0.56699zm-0.6803 2.8914c-0.8504 0-1.6064 0.2268-2.2678 0.6804-0.6615 0.4535-1.1812 1.0866-1.5591 1.8993-0.378 0.8126-0.567 1.7292-0.567 2.7497s0.189 1.937 0.567 2.7497c0.3779 0.8126 0.8976 1.4457 1.5591 1.8992 0.6614 0.4536 1.4174 0.6804 2.2678 0.6804 1.304 0 2.3434-0.5008 3.1182-1.5024s1.1622-2.2773 1.1622-3.8269c0-1.5497-0.3874-2.8253-1.1622-3.8269-0.7748-1.0017-1.8142-1.5025-3.1182-1.5025z" fill="#fff"/>
<path d="m105.17 9.4979c1.38 0 2.589 0.34961 3.628 1.0489 1.059 0.6803 1.881 1.6441 2.467 2.8914s0.878 2.6741 0.878 4.2805c0 1.6063-0.292 3.0331-0.878 4.2804s-1.408 2.2206-2.467 2.9198c-1.039 0.6803-2.248 1.0205-3.628 1.0205-1.002 0-1.871-0.1795-2.608-0.5386s-1.446-0.9922-2.126-1.8993v7.9373h-3.345v-21.629h3.345v2.1544c0.68-0.9071 1.38-1.5402 2.098-1.8992 0.737-0.37801 1.616-0.56699 2.636-0.56699zm-0.68 2.8914c-0.851 0-1.607 0.2268-2.268 0.6804-0.662 0.4535-1.181 1.0866-1.559 1.8993-0.378 0.8126-0.567 1.7292-0.567 2.7497s0.189 1.937 0.567 2.7497c0.378 0.8126 0.897 1.4457 1.559 1.8992 0.661 0.4536 1.417 0.6804 2.268 0.6804 1.304 0 2.343-0.5008 3.118-1.5024s1.162-2.2773 1.162-3.8269c0-1.5497-0.387-2.8253-1.162-3.8269-0.775-1.0017-1.814-1.5025-3.118-1.5025z" fill="#fff"/>
<path d="m122.2 25.968c-1.55 0-2.929-0.3497-4.139-1.0489-1.19-0.7181-2.116-1.6914-2.778-2.9198-0.661-1.2473-0.992-2.6457-0.992-4.1954 0-1.4363 0.293-2.7875 0.879-4.0537 0.604-1.2662 1.493-2.2867 2.664-3.0615 1.191-0.77483 2.618-1.1622 4.281-1.1622 1.398 0 2.693 0.30237 3.883 0.90714 1.21 0.5858 2.174 1.4835 2.892 2.693 0.737 1.2095 1.105 2.693 1.105 4.4505v0.8504h-12.302c0.113 0.7371 0.293 1.3229 0.538 1.7576 0.378 0.8882 0.917 1.5874 1.616 2.0977 0.718 0.5102 1.531 0.7654 2.438 0.7654 0.964 0 1.786-0.2457 2.466-0.7371 0.699-0.5102 1.2-1.1433 1.503-1.8992h3.458c-0.51 1.6441-1.399 2.9859-2.665 4.0253-1.266 1.0205-2.882 1.5308-4.847 1.5308zm4.309-10.177c-0.076-0.5858-0.246-1.0866-0.511-1.5024-0.378-0.6614-0.897-1.1622-1.559-1.5024-0.661-0.3591-1.398-0.5386-2.211-0.5386-0.831 0-1.568 0.1795-2.211 0.5386-0.642 0.3402-1.162 0.841-1.559 1.5024-0.246 0.378-0.435 0.8788-0.567 1.5024h8.618z" fill="#fff"/>
<path d="m132.71 25.656v-15.846h3.345v1.9843c0.623-0.8315 1.304-1.4173 2.041-1.7575 0.756-0.34016 1.644-0.51024 2.664-0.51024h0.369v3.2599h-0.85c-1.267 0-2.24 0.3402-2.92 1.0205-0.87 0.8126-1.304 2.2111-1.304 4.1954v7.6538h-3.345z" fill="#fff"/>
<path d="m150.82 14.746v-6.6518h0.518v2.612c0.388-0.5498 0.997-0.89802 1.676-0.89802 1.286 0 2.155 1.0074 2.155 2.5323s-0.879 2.5225-2.155 2.5225c-0.719 0-1.336-0.3881-1.676-0.8881v0.7686h-0.518v0.0025zm0.518-1.2064c0.278 0.4577 0.918 0.8582 1.587 0.8582 1.077 0 1.686-0.8881 1.686-2.0548s-0.609-2.0647-1.686-2.0647c-0.669 0-1.306 0.4179-1.587 0.8781v2.3832z" fill="#fff"/>
<path d="m156.12 16.152c0.11 0.0498 0.299 0.0796 0.418 0.0796 0.319 0 0.54-0.1293 0.729-0.5895l0.378-0.8583-2.035-4.8582h0.58l1.756 4.209 1.737-4.209h0.589l-2.492 5.8757c-0.259 0.6094-0.67 0.898-1.237 0.898-0.159 0-0.378-0.0299-0.507-0.0697l0.089-0.4776h-5e-3z" fill="#fff"/>
<path d="m153.95 25.849v-0.6393c-0.349 0.388-0.948 0.7587-1.707 0.7587-1.037 0-1.545-0.5398-1.545-1.5249v-3.4105h1.048v3.0324c0 0.7487 0.378 0.9776 0.967 0.9776 0.53 0 0.988-0.2985 1.237-0.6294v-3.3806h1.047v4.8185h-1.047v-0.0025z" fill="#fff"/>
<path d="m157.3 27.681h-1.047v-6.6518h1.047v0.6592c0.358-0.4776 0.918-0.7786 1.545-0.7786 1.246 0 2.134 0.9378 2.134 2.5224s-0.888 2.5323-2.134 2.5323c-0.609 0-1.157-0.2686-1.545-0.7885v2.505zm1.237-5.8459c-0.488 0-1.008 0.2886-1.237 0.6493v1.9055c0.229 0.3483 0.749 0.6493 1.237 0.6493 0.828 0 1.355-0.6692 1.355-1.607 0-0.9379-0.53-1.5971-1.355-1.5971z" fill="#fff"/>
<path d="m165.25 25.848v-3.0324c0-0.7487-0.388-0.9776-0.977-0.9776-0.53 0-0.988 0.3184-1.237 0.6493v3.3607h-1.047v-6.6518h1.047v2.4926c0.319-0.3782 0.948-0.7787 1.707-0.7787 1.037 0 1.555 0.5398 1.555 1.5249v3.4105h-1.048v0.0025z" fill="#fff"/>
<path d="m167.27 23.433c0-1.3757 0.947-2.5224 2.472-2.5224s2.483 1.1467 2.483 2.5224c0 1.3756-0.938 2.5323-2.483 2.5323s-2.472-1.1467-2.472-2.5323zm3.87 0c0-0.8483-0.497-1.5971-1.395-1.5971s-1.386 0.7488-1.386 1.5971c0 0.8482 0.498 1.607 1.386 1.607s1.395-0.7488 1.395-1.607z" fill="#fff"/>
<path d="m173.22 25.848v-6.6518h1.047v6.6518h-1.047z" fill="#fff"/>
<path d="m178.95 25.848v-0.6592c-0.368 0.4776-0.928 0.7786-1.545 0.7786-1.236 0-2.144-0.9378-2.144-2.5224s0.898-2.5323 2.144-2.5323c0.6 0 1.157 0.2786 1.545 0.7885v-2.5025h1.047v6.6518h-1.047v-0.0025zm0-3.3607c-0.239-0.3582-0.749-0.6492-1.246-0.6492-0.829 0-1.356 0.6691-1.356 1.6069 0 0.9379 0.53 1.5971 1.356 1.5971 0.497 0 1.007-0.2786 1.246-0.6393v-1.9155z" fill="#fff"/>
</svg>

<svg width="180" height="32" viewBox="0 0 180 32" fill="none" xmlns="http://www.w3.org/2000/svg">
<path fill-rule="evenodd" clip-rule="evenodd" d="M35.7412 16.5689C37.3931 19.43 36.4128 23.0885 33.5517 24.7403L26.3784 28.8818C23.5173 30.5337 19.8588 29.5534 18.207 26.6923C16.5551 23.8312 17.5354 20.1727 20.3965 18.5208L27.5698 14.3793C30.4309 12.7275 34.0893 13.7078 35.7412 16.5689Z" fill="#84FB7F"/>
<path fill-rule="evenodd" clip-rule="evenodd" d="M27.9033 2.99196C29.5552 5.85306 28.5749 9.51155 25.7138 11.1634L8.97388 20.8282C6.11277 22.4801 2.45428 21.4998 0.802424 18.6387C-0.849437 15.7776 0.130851 12.1191 2.99196 10.4672L19.7319 0.802424C22.593 -0.849437 26.2514 0.130851 27.9033 2.99196Z" fill="#84FB7F"/>
<path d="M56.5168 25.6559H52.9167V7.25846H46.1133V4.02686H63.3769V7.25846H56.5168V25.6559Z" fill="white"/>
<path d="M68.4874 25.9678C66.9377 25.9678 65.5581 25.6181 64.3486 24.9189C63.1392 24.2197 62.1942 23.2464 61.5139 21.9991C60.8525 20.7329 60.5217 19.2872 60.5217 17.662C60.5217 16.0934 60.8525 14.6949 61.5139 13.4665C62.1942 12.2193 63.1392 11.2554 64.3486 10.5751C65.5581 9.87587 66.9377 9.52626 68.4874 9.52626C70.037 9.52626 71.4166 9.87587 72.6261 10.5751C73.8356 11.2554 74.7805 12.2193 75.4608 13.4665C76.1412 14.6949 76.4813 16.0934 76.4813 17.662C76.4813 19.2683 76.1412 20.7046 75.4608 21.9708C74.7994 23.2181 73.8639 24.2008 72.6544 24.9189C71.445 25.6181 70.0559 25.9678 68.4874 25.9678ZM68.4874 23.048C69.3567 23.048 70.141 22.8212 70.8402 22.3676C71.5394 21.8952 72.078 21.2526 72.456 20.44C72.8529 19.6274 73.0513 18.7014 73.0513 17.662C73.0513 16.6793 72.8529 15.791 72.456 14.9973C72.078 14.1847 71.5394 13.5516 70.8402 13.098C70.141 12.6445 69.3567 12.4177 68.4874 12.4177C67.618 12.4177 66.8338 12.6445 66.1345 13.098C65.4353 13.5327 64.8872 14.1563 64.4904 14.969C64.1124 15.7627 63.9234 16.6604 63.9234 17.662C63.9234 18.7203 64.1219 19.6557 64.5187 20.4684C64.9156 21.281 65.4542 21.9141 66.1345 22.3676C66.8338 22.8212 67.618 23.048 68.4874 23.048Z" fill="white"/>
<path d="M87.3231 9.49791C88.7027 9.49791 89.9122 9.84752 90.9516 10.5468C92.0099 11.2271 92.832 12.1909 93.4178 13.4382C94.0037 14.6855 94.2966 16.1123 94.2966 17.7187C94.2966 19.325 94.0037 20.7518 93.4178 21.9991C92.832 23.2464 92.0099 24.2197 90.9516 24.9189C89.9122 25.5992 88.7027 25.9394 87.3231 25.9394C86.3215 25.9394 85.4522 25.7599 84.7152 25.4008C83.9781 25.0417 83.2694 24.4086 82.5891 23.5015V31.4388H79.2441V9.80973H82.5891V11.9641C83.2694 11.057 83.9687 10.4239 84.6868 10.0649C85.4238 9.68689 86.3026 9.49791 87.3231 9.49791ZM86.6428 12.3893C85.7924 12.3893 85.0364 12.6161 84.375 13.0697C83.7135 13.5232 83.1938 14.1563 82.8159 14.969C82.4379 15.7816 82.2489 16.6982 82.2489 17.7187C82.2489 18.7392 82.4379 19.6557 82.8159 20.4684C83.1938 21.281 83.7135 21.9141 84.375 22.3676C85.0364 22.8212 85.7924 23.048 86.6428 23.048C87.9468 23.048 88.9862 22.5472 89.761 21.5456C90.5358 20.544 90.9232 19.2683 90.9232 17.7187C90.9232 16.169 90.5358 14.8934 89.761 13.8918C88.9862 12.8901 87.9468 12.3893 86.6428 12.3893Z" fill="white"/>
<path d="M105.172 9.49791C106.552 9.49791 107.761 9.84752 108.8 10.5468C109.859 11.2271 110.681 12.1909 111.267 13.4382C111.853 14.6855 112.145 16.1123 112.145 17.7187C112.145 19.325 111.853 20.7518 111.267 21.9991C110.681 23.2464 109.859 24.2197 108.8 24.9189C107.761 25.5992 106.552 25.9394 105.172 25.9394C104.17 25.9394 103.301 25.7599 102.564 25.4008C101.827 25.0417 101.118 24.4086 100.438 23.5015V31.4388H97.093V9.80973H100.438V11.9641C101.118 11.057 101.818 10.4239 102.536 10.0649C103.273 9.68689 104.152 9.49791 105.172 9.49791ZM104.492 12.3893C103.641 12.3893 102.885 12.6161 102.224 13.0697C101.562 13.5232 101.043 14.1563 100.665 14.969C100.287 15.7816 100.098 16.6982 100.098 17.7187C100.098 18.7392 100.287 19.6557 100.665 20.4684C101.043 21.281 101.562 21.9141 102.224 22.3676C102.885 22.8212 103.641 23.048 104.492 23.048C105.796 23.048 106.835 22.5472 107.61 21.5456C108.385 20.544 108.772 19.2683 108.772 17.7187C108.772 16.169 108.385 14.8934 107.61 13.8918C106.835 12.8901 105.796 12.3893 104.492 12.3893Z" fill="white"/>
<path d="M122.199 25.9678C120.649 25.9678 119.27 25.6181 118.06 24.9189C116.87 24.2008 115.944 23.2275 115.282 21.9991C114.621 20.7518 114.29 19.3534 114.29 17.8037C114.29 16.3674 114.583 15.0162 115.169 13.75C115.773 12.4838 116.662 11.4633 117.833 10.6885C119.024 9.91367 120.451 9.52626 122.114 9.52626C123.512 9.52626 124.807 9.82863 125.997 10.4334C127.207 11.0192 128.171 11.9169 128.889 13.1264C129.626 14.3359 129.994 15.8194 129.994 17.5769V18.4273H117.692C117.805 19.1644 117.985 19.7502 118.23 20.1849C118.608 21.0731 119.147 21.7723 119.846 22.2826C120.564 22.7928 121.377 23.048 122.284 23.048C123.248 23.048 124.07 22.8023 124.75 22.3109C125.449 21.8007 125.95 21.1676 126.253 20.4117H129.711C129.201 22.0558 128.312 23.3976 127.046 24.437C125.78 25.4575 124.164 25.9678 122.199 25.9678ZM126.508 15.791C126.432 15.2052 126.262 14.7044 125.997 14.2886C125.619 13.6272 125.1 13.1264 124.438 12.7862C123.777 12.4271 123.04 12.2476 122.227 12.2476C121.396 12.2476 120.659 12.4271 120.016 12.7862C119.374 13.1264 118.854 13.6272 118.457 14.2886C118.211 14.6666 118.022 15.1674 117.89 15.791H126.508Z" fill="white"/>
<path d="M132.708 25.6559V9.80973H136.053V11.794C136.676 10.9625 137.357 10.3767 138.094 10.0365C138.85 9.69634 139.738 9.52626 140.758 9.52626H141.127V12.7862H140.277C139.01 12.7862 138.037 13.1264 137.357 13.8067C136.487 14.6193 136.053 16.0178 136.053 18.0021V25.6559H132.708Z" fill="white"/>
<path d="M150.826 14.7464V8.09454H151.343V10.7065C151.731 10.1568 152.341 9.80849 153.02 9.80849C154.306 9.80849 155.174 10.816 155.174 12.3409C155.174 13.8657 154.296 14.8633 153.02 14.8633C152.301 14.8633 151.684 14.4752 151.343 13.9752V14.7439H150.826V14.7464ZM151.343 13.5399C151.622 13.9976 152.261 14.3981 152.93 14.3981C154.007 14.3981 154.617 13.51 154.617 12.3433C154.617 11.1767 154.007 10.2786 152.93 10.2786C152.261 10.2786 151.624 10.6966 151.343 11.1568V13.5399Z" fill="white"/>
<path d="M156.122 16.152C156.232 16.2018 156.421 16.2316 156.54 16.2316C156.859 16.2316 157.08 16.1023 157.269 15.6421L157.647 14.7839L155.612 9.9256H156.192L157.948 14.1346L159.684 9.9256H160.274L157.781 15.8013C157.523 16.4107 157.112 16.6993 156.545 16.6993C156.386 16.6993 156.167 16.6694 156.038 16.6296L156.127 16.152H156.122Z" fill="white"/>
<path d="M153.948 25.8491V25.2098C153.6 25.5979 153 25.9685 152.242 25.9685C151.204 25.9685 150.697 25.4287 150.697 24.4436V21.0331H151.744V24.0655C151.744 24.8143 152.122 25.0431 152.712 25.0431C153.242 25.0431 153.699 24.7446 153.948 24.4138V21.0331H154.996V25.8516H153.948V25.8491Z" fill="white"/>
<path d="M157.301 27.6813H156.254V21.0295H157.301V21.6887C157.659 21.2111 158.219 20.9101 158.846 20.9101C160.092 20.9101 160.98 21.8479 160.98 23.4325C160.98 25.0171 160.092 25.9649 158.846 25.9649C158.236 25.9649 157.689 25.6962 157.301 25.1763V27.6788V27.6813ZM158.537 21.8355C158.05 21.8355 157.53 22.124 157.301 22.4847V24.3902C157.53 24.7385 158.05 25.0395 158.537 25.0395C159.366 25.0395 159.893 24.3703 159.893 23.4325C159.893 22.4947 159.363 21.8355 158.537 21.8355Z" fill="white"/>
<path d="M165.257 25.848V22.8157C165.257 22.0669 164.868 21.838 164.279 21.838C163.749 21.838 163.291 22.1565 163.043 22.4873V25.848H161.995V19.1962H163.043V21.6888C163.361 21.3107 163.99 20.9102 164.749 20.9102C165.786 20.9102 166.304 21.45 166.304 22.4351V25.8456H165.257V25.848Z" fill="white"/>
<path d="M167.269 23.4325C167.269 22.0569 168.217 20.9101 169.741 20.9101C171.266 20.9101 172.224 22.0569 172.224 23.4325C172.224 24.8081 171.286 25.9649 169.741 25.9649C168.197 25.9649 167.269 24.8181 167.269 23.4325ZM171.139 23.4325C171.139 22.5842 170.642 21.8355 169.744 21.8355C168.846 21.8355 168.358 22.5842 168.358 23.4325C168.358 24.2808 168.856 25.0395 169.744 25.0395C170.632 25.0395 171.139 24.2907 171.139 23.4325Z" fill="white"/>
<path d="M173.217 25.848V19.1962H174.264V25.848H173.217Z" fill="white"/>
<path d="M178.953 25.8485V25.1893C178.585 25.6669 178.025 25.9679 177.408 25.9679C176.172 25.9679 175.264 25.0301 175.264 23.4455C175.264 21.8609 176.162 20.9131 177.408 20.9131C178.008 20.9131 178.565 21.1917 178.953 21.7017V19.1992H180V25.851H178.953V25.8485ZM178.953 22.4877C178.714 22.1295 178.204 21.8385 177.707 21.8385C176.878 21.8385 176.351 22.5076 176.351 23.4455C176.351 24.3833 176.881 25.0425 177.707 25.0425C178.204 25.0425 178.714 24.7639 178.953 24.4032V22.4877Z" fill="white"/>
</svg>
